!!!!SEGMENT: pl-wtm--r-1441_stefani-jozef--spiewka-basi-z-operety-piorun.krn
!!!cenid: 18xx:2458
!!!COM: Stefani, Józef
!!!COM-rismID: pe30024097
!!!CDT: 1800/04/16-1876/03/19
!!!CNT: Polish
!!!OTL: Śpiewka Basi z operety Piorun
!!!PDT:
!!!AGN: Secular
!!!SMS-siglum: PL-Wtm
!!!SMS-shelfmark: R 1441
!!!SMS-shelfwork: W
!!!SMS-variant:
!!!SMS-altvar:
!!!NIFC-rismSourceID: 1001116445
!!!NIFC-rismChildID: 1001116445
!!!NIFC-islandoraID: pl-wtm:25706
!!!URL-pdf-islandora: https://repozytorium.nifc.pl/islandora/object/pl-wtm%3A25706/datastream/PDF/view
!!!URL-scan: https://polish.musicsources.pl/pl/lokalizacje/galeria/rekopisy/6257 @EN{Scan on Polish Music Sources Website} @PL{Skany w portalu Dziedzictwo Muzyki Polskiej w otwartym dostępie}
!!!IIIF:
!!!ONB-nifc:
!!!AIN: 1 empty 2 piano
!!!key:
**kern	**kern	**dynam	**kern	**text	**dynam
*part3	*part2	*part2	*part1	*part1	*part1
*staff3	*staff2	*	*staff1	*staff1	*
*Ipiano	*Ipiano	*	*Iempty	*	*
*I"[Piano]	*I"Piano	*	*I"Śpiew	*	*
*I'[pn]	*I'pn	*	*I'Ś	*	*
*clefF4	*clefG2	*	*clefG2	*	*
*k[]	*k[]	*	*k[]	*	*
*C:	*C:	*	*C:	*	*
*M3/4	*M3/4	*	*M3/4	*	*
=1	=1	=1	=1	=1	=1
8C/ 8CC/	8.ee\L 8.e\|	f	2.r	.	.
8r	.	.	.	.	.
.	16ff\Jk 16f\|	.	.	.	.
4c\ 4G\ 4E\ 4C\	4gg\ 4g\|	.	.	.	.
4c\ 4G\ 4E\ 4C\	4ccc\ 4cc\|	.	.	.	.
=2	=2	=2	=2	=2	=2
8F/ 8FF/	8.bb\L 8.b\|	.	2.r	.	.
8r	.	.	.	.	.
.	16aa\Jk 16a\|	.	.	.	.
4d\ 4A\ 4F\	4ff\ 4f\|	.	.	.	.
4d\ 4A\ 4F\	4dd\|	.	.	.	.
=3	=3	=3	=3	=3	=3
!	!LO:SIC:v:t=początek łuku na dole koniec na górze	!	!	!	!
8G\ 8GG\	(16b/LL	.	2.r	.	.
.	16a/	.	.	.	.
8r	16g/	.	.	.	.
.	16a/JJ	.	.	.	.
4f\ 4d\ 4G\	16b\LL	.	.	.	.
.	16cc\	.	.	.	.
.	16dd\	.	.	.	.
.	16ee\JJ	.	.	.	.
4f\ 4d\ 4G\	16ff\LL	.	.	.	.
.	16gg\	.	.	.	.
.	16aa\	.	.	.	.
.	16bb\JJ)	.	.	.	.
=4	=4	=4	=4	=4	=4
8e\ 8c\	8ccc\	.	2.r;	.	.
8r	8r	.	.	.	.
8r	8r	.	.	.	.
16e\LL 16c\	16eee\LL 16ccc\ 16gg'\	.	.	.	.
16e\JJ 16c\	16eee\JJ 16ccc\ 16gg'\	.	.	.	.
8d\ 8B\ 8G\	8ggg\ 8bb\ 8gg'\	.	.	.	.
8r;	8r;	.	.	.	.
!!LO:PB:g=original
=5	=5	=5	=5	=5	=5
4C/ 4CC/	4r	p	8.e/	Próż-	.
.	.	.	16f/	-no	.
4r	4e/ 4c/ 4G/	.	4g/	ra-	.
4r	4e/ 4c/ 4G/	.	4cc\	-dą	.
=6	=6	=6	=6	=6	=6
4F/ 4FF/	4r	.	8.b\	i	.
.	.	.	16a\	przes-	.
4r	4f/ 4d/ 4A/	.	4f/	-tro-	.
4r	4f/ 4d/ 4A/	.	4d/	-gą	.
=7	=7	=7	=7	=7	=7
4G/ 4GG/	4r	.	8.B/	O	.
.	.	.	16d/	spo-	.
4r	4f/ 4B/ 4G/	.	4a/	-so-	.
4r	4f/ 4B/ 4G/	.	4g/	-bach	.
=8	=8	=8	=8	=8	=8
8C/ 8CC/	8e/ 8c/ 8G/	.	8e/	śnić	.
8r	16r	.	8r	.	.
.	16dd\|	.	.	.	.
4f\ 4B\ 4G\	(4aa\	.	4r	.	.
4f\ 4B\ 4G\	4gg\)	.	4r	.	.
=9	=9	=9	=9	=9	=9
4C/ 4CC/	4r	.	8.e/	Ża-	.
.	.	.	16f/	-dne	.
4r	4e/ 4c/ 4G/	.	4g/	ra-	.
4r	4e/ 4c/ 4G/	.	4cc\	-dy	.
!!LO:LB:g=original
=10	=10	=10	=10	=10	=10
4F/ 4FF/	4r	.	8.b\	nie	.
.	.	.	16a\	po-	.
4D/ 4DD/	4f/ 4d/ 4A/	.	4ff\	-mo-	.
4F/ 4FF/	4d/ 4A/	.	4dd\	-gą	.
=11	=11	=11	=11	=11	=11
4G\ 4GG\	4r	.	8.b\	Kie-	.
.	.	.	16dd\	-dy	.
4r	4f/ 4d/ 4G/	.	4g/	ser-	.
4r	4f/ 4d/ 4G/	.	4b\	-ce	.
=12	=12	=12	=12	=12	=12
.	.	.	(8qdd/	.	.
8C/ 8CC/	8e/ 8c/ 8G/	.	8.cc\)	zacz-	.
8r	8r	.	.	.	.
.	.	.	16b\	-nie	.
4C/ 4CC/	4e/ 4c/ 4G/	.	4cc\	bić	.
4r	(>4cc\	.	4r	.	.
=13	=13	=13	=13	=13	=13
8.g\L	8.b/L)	.	8.b\	tik	.
16f#X\Jk	16cc/Jk	.	16cc\	tik	.
8fn\	8dd/	.	8dd\	tak	.
8r	8r	.	8r	.	.
4r	4gg\ 4g\	.	4gg\	Ah!	.
=14	=14	=14	=14	=14	=14
8.e\L	8.cc/L 8.g/	.	8.cc\	tik	.
16B\Jk	16dd/Jk 16g/	.	16dd\	tik	.
8c\	8ee/ 8g/	.	8ee\	tak	.
8r	8r	.	8r	.	.
4r	4gg\ 4g\	.	4gg\	Ah!	.
!!LO:LB:g=original
=15	=15	=15	=15	=15	=15
4F/ 4FF/	4r	.	8.b\	kie-	.
.	.	.	16a\	-dy	.
4D/ 4DD/	4f/ 4d/ 4A/	.	4ff\	ser-	.
4F/ 4FF/	4d/ 4A/	.	4dd\	-ce	.
=16	=16	=16	=16	=16	=16
8GG/ 8GGG/	8f/ 8B/ 8G/	.	(16aa\LL	zacz-	.
.	.	.	16gg\JJ)	.	.
8r	8r	.	(16ff\LL	-nie	.
.	.	.	16dd\JJ)	.	.
4C/ 4CC/	4e/ 4c/ 4G/	.	4cc\	bić	.
4r	(>(>4ccc\ 4cc\	f	4r	.	.
=17	=17	=17	=17	=17	=17
4d\ 4A\ 4F\	8.bb\L 8.b\))	.	2.r	.	.
.	16aa\Jk 16a\	.	.	.	.
4d\ 4A\ 4D\	4fff\ 4ff\	.	.	.	.
4d\ 4A\ 4F\	4ddd\ 4dd\	.	.	.	.
=18	=18	=18	=18	=18	=18
.	(>8qb/	.	.	.	.
4f\ 4B\ 4G\	16aa\LL	.	4r	.	.
.	16gg\	.	.	.	.
.	16ff\	.	.	.	.
.	16dd\JJ)	.	.	.	.
4e\ 4c\	4cc\	.	4r	.	.
4r	4r	p	4cc\	Ah!	.
=19	=19	=19	=19	=19	=19
4AA\ 4AAA\	8r	.	8.cc\	Zkąd	.
.	(8c/ 8A</ 8E<'>/	.	.	.	.
.	.	.	16b\	po-	.
*	*tremolo	*	*	*	*
4r	8c/L 8A</ 8E<'>/	.	4a/	-czą-	.
.	8c/ 8A</ 8E<'>/	.	.	.	.
4r	8c/ 8A</ 8E<'>/	.	4cc\	-tek	.
.	8c/J 8A</ 8E<'>/)	.	.	.	.
!!LO:LB:g=original
=20	=20	=20	=20	=20	=20
4AA\ 4AAA\	8r	.	8.b/	mi-	.
.	8e/ 8d/ 8B/ 8G#X/ 8E/	.	.	.	.
.	.	.	16a/	-łość	.
4r	8e/L 8d/ 8B/ 8G#/ 8E/	.	4g#X/	bie-	.
.	8e/ 8d/ 8B/ 8G#/ 8E/	.	.	.	.
4r	8e/ 8d/ 8B/ 8G#/ 8E/	.	4e/	-rze	.
.	8e/J 8d/ 8B/ 8G#/ 8E/	.	.	.	.
*	*Xtremolo	*	*	*	*
=21	=21	=21	=21	=21	=21
4AA\ 4AAA\	8r	.	8.a\	Jak	.
.	8c/L 8A</ 8E</	.	.	.	.
.	.	.	16b\	się	.
4r	8c/ 8A</ 8E</	.	4cc\	du-	.
.	8c/J 8A</ 8E</	.	.	.	.
8F\ 8FF\	8r	.	4dd\	-sze	.
8r	8d/ 8A</ 8F</	.	.	.	.
=22	=22	=22	=22	=22	=22
8E\ 8EE\	8r	.	8.ee\	zej-	.
8r	8e/ 8G#X</ 8E</	.	.	.	.
.	.	.	16ee\	-dą	.
*	*tremolo	*	*	*	*
4r	8e/L 8G#</ 8E</	.	2b\	dwie	.
.	8e/ 8G#</ 8E</	.	.	.	.
4r	8e/ 8G#</ 8E</	.	.	.	.
.	8e/J 8G#</ 8E</	.	.	.	.
*	*Xtremolo	*	*	*	*
=23	=23	=23	=23	=23	=23
8AA\ 8AAA\	8r	.	8.a\	Choć	.
8r	8c/ 8A</ 8E</	.	.	.	.
.	.	.	16b\	kto	.
.	.	.	8qdd/	.	.
8AA\ 8AAA\	8r	.	4cc\	po-	.
8r	8c/ 8A</ 8E</	.	.	.	.
4FF#X\ 4FFF#X\	8r	.	4a\	-wie	.
.	8c/ 8A</ 8E-X</	.	.	.	.
=24	=24	=24	=24	=24	=24
8GG\ 8GGG\	8r	.	8.a/	nie	.
8r	8c/ 8G</ 8En</	.	.	.	.
.	.	.	16g/	u-	.
8GG\ 8GGG\	8r	.	4ee\	-wie-	.
8r	8c/ 8G</ 8E</	.	.	.	.
8GG\ 8GGG\	8r	.	4cc\	-rżę	.
8r	8c/ 8G</ 8E</	.	.	.	.
!!LO:PB:g=original
=25	=25	=25	=25	=25	=25
8GG\ 8GGG\	8r	.	8.b/	Bo	.
8r	8d/ 8B/ 8G</ 8F</	.	.	.	.
.	.	.	16a/	nikt	.
8GG\ 8GGG\	8r	.	8.g/	te-	.
8r	8f/ 8B/ 8G</	.	.	.	.
.	.	.	16f/	-go	.
4GG\ 4GGG\	8r	.	8.d/	nie	.
.	8f/ 8B/ 8G</	.	.	.	.
!	!	!	!LO:TX:a:t=SIC&colon;l&colon;s=zgadł	!	!
.	.	.	16g/	zgdł	.
=26	=26	=26	=26	=26	=26
4C\ 4CC\	4e/ 4c/ 4G</	.	4c/	nie	.
4c\ 4G\ 4E\ 4C\	4ccc\ 4gg\ 4ee\ 4cc\	f	4r	.	.
4r	4r	.	4g/	Ah!	.
.	.	p	.	.	.
=27	=27	=27	=27	=27	=27
8.g>\L	8.b/L	.	8.b\	nie	.
16f#X>\Jk	16cc/Jk	.	16cc\	nie	.
8fn>\	8dd/ 8b/ 8g/	.	8dd\	nie	.
8r>	8r	.	8r	.	.
4f>^\	4gg/ 4b/ 4g/	.	4gg\	nie	.
=28	=28	=28	=28	=28	=28
8.e>\L	8.cc/L 8.g/	.	8.cc\	nie	.
16B>\Jk	16dd/Jk 16g/	.	16dd\	nie	.
8c>\	8ee/ 8g/	.	8ee\	nie	.
8r>	8r	.	8r	.	.
4e>^\	4gg/ 4cc/ 4g/	.	4gg\	nie	.
!!LO:LB:g=original
=29	=29	=29	=29	=29	=29
4G\ 4GG\	4r	.	8.b\	Bo	.
.	.	.	16dd\	nikt	.
4r	4f/ 4d/ 4A/ 4G/	.	4g/	te-	.
4r	4f/ 4d/ 4G/	.	4b\	-go	.
=30	=30	=30	=30	=30	=30
.	.	.	8qdd/	.	.
8C/ 8CC/	8e/ 8c/ 8G/	.	8.cc\	nie	.
8r	8r	.	.	.	.
.	.	.	16b\	zgadł	.
4C/ 4CC/	4e/ 4c/ 4G/	.	4cc\	nie.	.
4r	4cc\	.	4r	.	.
=31	=31	=31	=31	=31	=31
8.G/L 8.GG/	8.b/L 8.g/	f	2.r	.	.
16F#X/Jk 16FF#X/	16cc/Jk 16a/	.	.	.	.
8Fn/ 8FFn/	8dd/ 8b/ 8g/	.	.	.	.
8r	8r	.	.	.	.
4F/ 4FF/	4gg\ 4b\ 4g\	sf	.	.	.
=32	=32	=32	=32	=32	=32
*^	*	*	*	*	*
8.E\L 8.EE\	4.E/	8.cc/L 8.g/	.	2.r	.	.
16B\Jk 16BB\	.	16dd/Jk 16g/	.	.	.	.
8c\ 8C\	.	8ee/ 8g/	.	.	.	.
8r	8ryy	8r	.	.	.	.
4E/ 4EE/	4ryy	4gg\ 4cc\ 4g\	sf	.	.	.
*v	*v	*	*	*	*	*
!!LO:PB:g=original
=33	=33	=33	=33	=33	=33
4F/ 4FF/	4r	.	8.b\	Bo	.
.	.	.	16a\	nikt	.
4D/ 4DD/	4f/ 4d/ 4A/	.	4ff\	te-	.
4F/ 4FF/	4d/ 4A/	.	4dd\	-go	.
=34	=34	=34	=34	=34	=34
8GG/ 8GGG/	8f/ 8d/ 8B/ 8G/	.	(16aa\LL	nie	.
.	.	.	16gg\JJ)	.	.
8r	8r	.	(16ff\LL	zgadł	.
.	.	.	16dd\JJ)	.	.
4C/ 4CC/	4e/ 4c/ 4G/	.	4cc\	nie.	.
4r	4ccc\ 4cc\	.	4r	.	.
=35	=35	=35	=35	=35	=35
4d\ 4A\ 4F\	8.bb\L 8.b\	.	2.r	.	.
.	16aa\Jk 16a\	.	.	.	.
4d\ 4A\ 4D\	4fff\ 4ff\	.	.	.	.
4d\ 4A\ 4F\	4ddd\ 4dd\	.	.	.	.
=36	=36	=36	=36	=36	=36
4f\ 4B\ 4G\	(16aa\LL	.	2.r;	.	.
.	16gg\	.	.	.	.
.	16ff\	.	.	.	.
.	16dd\JJ)	.	.	.	.
8e\ 8c\	8cc\	.	.	.	.
8r	8r	.	.	.	.
8d\ 8G\	8gg\ 8b\ 8g\	.	.	.	.
8r;	8r;	.	.	.	.
!!LO:LB:g=original
=37	=37	=37	=37	=37	=37
4C/ 4CC/	4r	p	8.e/	A-	.
.	.	.	16f/	-le	.
4r	4e/ 4c/ 4G/	.	4g/	zda-	.
4r	4e/ 4c/ 4G/	.	4cc\	-nia	.
=38	=38	=38	=38	=38	=38
4F/ 4FF/	4r	.	8.b\	w tem	.
.	.	.	16a\	nie	.
4r	4f/ 4d/ 4A/	.	4f/	zmie-	.
4r	4d/ 4A/	.	4d/	-nić	.
=39	=39	=39	=39	=39	=39
4G/ 4GG/	4r	.	8.B/	Strze-	.
.	.	.	16d/	-dzi-	.
4r	4f/ 4B/ 4G/	.	4a/	-wię-	.
4r	4f/ 4B/ 4G/	.	4g/	-zić	.
=40	=40	=40	=40	=40	=40
4C/ 4CC/	4r	.	8.f#X/	ser-	.
.	.	.	16g/	-ce	.
4r	4e/ 4c/ 4G/	.	4e/	kaź	.
4r	4e/ 4c/ 4G/	.	4r	.	.
!!LO:PB:g=original
=41	=41	=41	=41	=41	=41
8C/ 8CC/	8r	.	8.e/	Je-	.
8r	8e/ 8c/ 8G/	.	.	.	.
.	.	.	16f/	-dno	.
*rep	*rep	*	*	*	*
8C/ 8CC/	8r	.	4g/	tkli-	.
8r	8e/ 8c/ 8G/	.	.	.	.
*Xrep	*Xrep	*	*	*	*
*rep	*rep	*	*	*	*
8C/ 8CC/	8r	.	4cc\	-we	.
8r	8e/ 8c/ 8G/	.	.	.	.
*Xrep	*Xrep	*	*	*	*
=42	=42	=42	=42	=42	=42
8F/ 8FF/	8r	.	8.b\	rzuć	.
8r	8f/ 8d/ 8A/	.	.	.	.
.	.	.	16b\	spoj-	.
*rep	*rep	*	*	*	*
8D/ 8DD/	8r	.	4ff\	-rze-	.
8r	8f/ 8d/ 8A/	.	.	.	.
*Xrep	*Xrep	*	*	*	*
*rep	*rep	*	*	*	*
8F/ 8FF/	8r	.	4dd\	-nie	.
8r	8f/ 8d/ 8A/	.	.	.	.
*Xrep	*Xrep	*	*	*	*
=43	=43	=43	=43	=43	=43
8G/ 8GG/	8r	.	8.b\	za	.
8r	8f/ 8d/ 8B/ 8G/	.	.	.	.
.	.	.	16dd\	nic	.
*	*rep	*	*	*	*
8GG/ 8GGG/	8r	.	4gg\	kaz-	.
8r	8f/ 8d/ 8B/ 8G/	.	.	.	.
*	*Xrep	*	*	*	*
*	*rep	*	*	*	*
8GG/ 8GGG/	8r	.	4b\	-da	.
8r	8f/ 8d/ 8B/ 8G/	.	.	.	.
*	*Xrep	*	*	*	*
=44	=44	=44	=44	=44	=44
.	.	.	(8qdd/	.	.
8C/ 8CC/	8e/ 8c/ 8G/	.	8.cc\)	kaz-	.
8r	8r	.	.	.	.
.	.	.	16b\	-da	.
4C/ 4CC/	4e/ 4c/ 4G/	.	8cc\	straż.	.
.	.	.	8ryy	.	.
4r	4r	.	4r	.	.
=45	=45	=45	=45	=45	=45
8.g>\L	8.b/L	.	8.b\	la	.
16f#X>\Jk	16cc/Jk	.	16cc\	la	.
8fn>\	8dd/ 8b/ 8g/	.	8dd\	la	.
8r>	16r	.	16r	.	.
.	16g/	.	16g/	la	.
4r>	4gg\	.	4gg\	la	.
!!LO:LB:g=original
=46	=46	=46	=46	=46	=46
8.e>\L	8.cc/L 8.g/	.	8.cc\	la	.
16B>\Jk	16dd/Jk 16g/	.	16dd\	la	.
8c>\	8ee/ 8g/	.	8ee\	la	.
8r>	16r	.	16r	.	.
.	([16g/	.	16g/	la	.
4r>	4gg\ 4g\])	.	4gg\	la	.
=47	=47	=47	=47	=47	=47
4F/ 4FF/	4r	f	8.b\	Za	.
.	.	.	16a\	nic	.
4D/ 4DD/	4f/ 4d/ 4A/	.	4ff\	Każ-	.
4F/ 4FF/	4d/ 4A/	.	4dd\	-da	.
=48	=48	=48	=48	=48	=48
4GG/ 4GGG/	4f/ 4B/ 4G/	.	(16aa\LL	Kaz-	.
.	.	.	16gg\JJ)	.	.
.	.	.	(16ff\LL	-da	.
.	.	.	16dd\JJ)	.	.
8C/ 8CC/	8e/ 8c/ 8G/	.	8cc\	straż.	.
8r	8r	.	8r	.	.
!	!	!	!	!	!LO:DY:a
4r	4r	.	4cc\	la	f
=49	=49	=49	=49	=49	=49
!	!	!	!LO:TX:t=P:problem=klamra łukowa	!	!
4GG/ 4GGG/	4r	.	12b\L	la-	.
.	.	.	12aa\	.	.
.	.	.	12aa-X\J	.	.
4r	8f/ 8d/ 8G/	.	8gg\	-la	.
.	8r	.	8r	.	.
4r	4f/ 4d/ 4G/	.	4b\	la	.
!!LO:LB:g=original
=50	=50	=50	=50	=50	=50
!	!	!	!LO:TX:t=P:problem=klamra łukowa	!	!
4GG/ 4GGG/	4r	.	12cc\L	la-	.
.	.	.	12aa\	.	.
.	.	.	12aa-X\J	.	.
4r	8e/ 8c/ 8G/	.	8gg\	-la	.
.	8r	.	8r	.	.
4r	4e/ 4c/ 4G/	.	4ee\	la	.
=51	=51	=51	=51	=51	=51
4GG/ 4GGG/	4r	.	(24ee\LL	la-	.
.	.	.	24ff\	.	.
.	.	.	24ee\JJ	.	.
.	.	.	16.dd\LL	.	.
.	.	.	32ee\JJk)	.	.
4r	8f/ 8d/ 8G/	.	8ff\	-la	.
.	8r	.	8r	.	.
4r	4f/ 4d/ 4G/	.	8.a/	la	.
.	.	.	16b/	la	.
=52	=52	=52	=52	=52	=52
4C/ 4CC/	4r	.	(16dd\LL	la-	.
.	.	.	16cc\	.	.
.	.	.	16b\	.	.
.	.	.	16cc\JJ)	.	.
4r	4e/ 4c/ 4G/	.	8g/	-la	.
.	.	.	8r	.	.
!	!	!	!	!	!LO:DY:a
4r	4r	pp	4cc\	la	pp
=53	=53	=53	=53	=53	=53
!	!	!	!LO:TX:t=P:problem=klamra łukowa	!	!
4GG/ 4GGG/	4r	.	12b\L	la-	.
.	.	.	12aa\	.	.
.	.	.	12aa-X\J	.	.
4r	8f/ 8d/ 8G/	.	8gg\	-la	.
.	8r	.	8r	.	.
4r	4f/ 4d/ 4G/	.	4b\	la	.
!!LO:LB:g=original
=54	=54	=54	=54	=54	=54
!	!	!	!LO:TX:t=P:problem=klamra łukowa	!	!
4GG\ 4GGG\	4r	.	12cc\L	la-	.
.	.	.	12aa\	.	.
.	.	.	12aa-X\J	.	.
4r	8e/ 8c/ 8G/	.	8gg\	-la	.
.	8r	.	8r	.	.
!	!	!	!	!	!LO:DY:a
4r	4e/ 4c/ 4G/	.	4cc\	la	f
=55	=55	=55	=55	=55	=55
!	!	!	!LO:SIC:v:t=początek łuku na dole koniec na górze	!	!
8GG\ 8GGG\	8f/ 8d/ 8G/	f	(16b/LL	la-	.
.	.	.	16a/	.	.
8r	8r	.	16g/	.	.
.	.	.	16a/JJ	.	.
*rep	*rep	*	*	*	*
8GG\ 8GGG\	8f/ 8d/ 8G/	.	16b\LL	.	.
.	.	.	16cc\	.	.
8r	8r	.	16dd\	.	.
.	.	.	16ee\JJ	.	.
*Xrep	*Xrep	*	*	*	*
*rep	*rep	*	*	*	*
8GG\ 8GGG\	8f/ 8d/ 8G/	.	16gg\LL	.	.
.	.	.	16ff\	.	.
8r	8r	.	16dd\	.	.
.	.	.	16b\JJ)	.	.
*Xrep	*Xrep	*	*	*	*
=56	=56	=56	=56	=56	=56
4C/ 4CC/	4e/ 4c/ 4G/	.	4cc\	-la.	.
4c\ 4G\ 4E\ 4C\	4ccc\ 4gg\ 4ee\ 4cc\	ff	4r	.	.
4r;	4r;	.	4r;	.	.
==	==	==	==	==	==
*-	*-	*-	*-	*-	*-
!!!system-decoration: s1[(s2,s3)]
!!!RDF**kern: > = above
!!!RDF**kern: < = below
!!!RDF**kern: | = vertical stroke
!!!EED: Leszek Kubiak
!!!EEV: 2021-06-29
!!!ENC: Andrzej Gręziak
!!!END: 2021-06-21
!!!YEC: Copyright 2022 Narodowy Instytut Fryderyka Chopina (https://polishscores.org)
!!!YEM: License CC-BY-4.0 (https://creativecommons.org/licenses/by/4.0)
